svg/知识库.svg

<svg width="22" height="22" viewBox="0 0 22 22" fill="none" xmlns="http://www.w3.org/2000/svg"><rect width="22" height="22" fill="#DADADA"/><path d="M17.4165 1.83325H4.58317C4.07691 1.83325 3.6665 2.24366 3.6665 2.74992V19.2499C3.6665 19.7562 4.07691 20.1666 4.58317 20.1666H17.4165C17.9228 20.1666 18.3332 19.7562 18.3332 19.2499V2.74992C18.3332 2.24366 17.9228 1.83325 17.4165 1.83325Z" stroke="#757575" stroke-width="1.5" stroke-linecap="round" stroke-linejoin="round"/><path d="M13.75 10.5417L12.1621 8.95385M12.1621 8.95385C12.5768 8.53915 12.8333 7.96624 12.8333 7.33341C12.8333 6.06777 11.8073 5.04175 10.5417 5.04175C9.27603 5.04175 8.25 6.06777 8.25 7.33341C8.25 8.59906 9.27603 9.62508 10.5417 9.62508C11.1745 9.62508 11.7474 9.3686 12.1621 8.95385Z" stroke="#757575" stroke-width="1.5" stroke-linecap="round" stroke-linejoin="round"/><path d="M7.7915 13.75H14.2082" stroke="#757575" stroke-width="1.5" stroke-linecap="round" stroke-linejoin="round"/><path d="M7.7915 16.5H10.9998" stroke="#757575" stroke-width="1.5" stroke-linecap="round" stroke-linejoin="round"/></svg>

<svg fill="none" viewBox="0 0 22 22"><path fill="#DADADA" d="M0 0h22v22H0z"/><path stroke="#757575" stroke-linecap="round" stroke-linejoin="round" stroke-width="1.5" d="M17.417 1.833H4.583a.917.917 0 0 0-.917.917v16.5c0 .506.41.917.917.917h12.834c.506 0 .916-.41.916-.917V2.75a.917.917 0 0 0-.916-.917"/><path stroke="#757575" stroke-linecap="round" stroke-linejoin="round" stroke-width="1.5" d="m13.75 10.542-1.588-1.588m0 0a2.292 2.292 0 1 0-3.24-3.24 2.292 2.292 0 0 0 3.24 3.24"/><path stroke="#757575" stroke-linecap="round" stroke-linejoin="round" stroke-width="1.5" d="M7.792 13.75h6.416"/><path stroke="#757575" stroke-linecap="round" stroke-linejoin="round" stroke-width="1.5" d="M7.792 16.5H11"/></svg>
